X: 1
T: Black Robe, The
M: 6/8
L: 1/8
R: jig
K: Dmaj
|: d | cA=c BGB | cAA A2d | cA=c BGB | AFD D2d |
cA=c BGB | cAA A2d | G3 BGB | AFD D2 :|
|: e | f3 g3 | afd cBA | f3 g3 | afd dfg |
agf gfe | fed e2d | cA=c BGB | AFD D2 :|
